public/contentful-richtext-converter-icon.svg

<?xml version="1.0" encoding="UTF-8"?>
<svg width="32px" height="32px" viewBox="0 0 32 32" version="1.1" xmlns="http://www.w3.org/2000/svg" xmlns:xlink="http://www.w3.org/1999/xlink">
    <title>material-symbols:conversion-path</title>
    <g id="Page-1" stroke="none" stroke-width="1" fill="none" fill-rule="evenodd">
        <g id="Artboard" transform="translate(-139.000000, -70.000000)">
            <g id="material-symbols:conversion-path" transform="translate(139.000000, 70.000000)">
                <rect id="ViewBox" x="0" y="0" width="32" height="32"></rect>
                <path d="M25.3333333,28 C24.4666667,28 23.6888889,27.7497778 23,27.2493333 C22.3111111,26.7488889 21.8333333,26.1102222 21.5666667,25.3333333 L14.6666667,25.3333333 C13.2,25.3333333 11.9444444,24.8111111 10.9,23.7666667 C9.85555556,22.7222222 9.33333333,21.4666667 9.33333333,20 C9.33333333,18.5333333 9.85555556,17.2777778 10.9,16.2333333 C11.9444444,15.1888889 13.2,14.6666667 14.6666667,14.6666667 L17.3333333,14.6666667 C18.0666667,14.6666667 18.6946667,14.4053333 19.2173333,13.8826667 C19.74,13.36 20.0008889,12.7324444 20,12 C20,11.2666667 19.7386667,10.6386667 19.216,10.116 C18.6933333,9.59333333 18.0657778,9.33244444 17.3333333,9.33333333 L10.4333333,9.33333333 C10.1444444,10.1111111 9.66088889,10.7502222 8.98266667,11.2506667 C8.30444444,11.7511111 7.53244444,12.0008889 6.66666667,12 C5.55555556,12 4.61111111,11.6111111 3.83333333,10.8333333 C3.05555556,10.0555556 2.66666667,9.11111111 2.66666667,8 C2.66666667,6.88888889 3.05555556,5.94444444 3.83333333,5.16666667 C4.61111111,4.38888889 5.55555556,4 6.66666667,4 C7.53333333,4 8.30577778,4.25022222 8.984,4.75066667 C9.66222222,5.25111111 10.1448889,5.88977778 10.432,6.66666667 L17.3333333,6.66666667 C18.8,6.66666667 20.0555556,7.18888889 21.1,8.23333333 C22.1444444,9.27777778 22.6666667,10.5333333 22.6666667,12 C22.6666667,13.4666667 22.1444444,14.7222222 21.1,15.7666667 C20.0555556,16.8111111 18.8,17.3333333 17.3333333,17.3333333 L14.6666667,17.3333333 C13.9333333,17.3333333 13.3053333,17.5946667 12.7826667,18.1173333 C12.26,18.64 11.9991111,19.2675556 12,20 C12,20.7333333 12.2613333,21.3613333 12.784,21.884 C13.3066667,22.4066667 13.9342222,22.6675556 14.6666667,22.6666667 L21.5666667,22.6666667 C21.8555556,21.8888889 22.3391111,21.2497778 23.0173333,20.7493333 C23.6955556,20.2488889 24.4675556,19.9991111 25.3333333,20 C26.4444444,20 27.3888889,20.3888889 28.1666667,21.1666667 C28.9444444,21.9444444 29.3333333,22.8888889 29.3333333,24 C29.3333333,25.1111111 28.9444444,26.0555556 28.1666667,26.8333333 C27.3888889,27.6111111 26.4444444,28 25.3333333,28 Z M6.66666667,9.33333795 C7.04444444,9.33333795 7.36133333,9.20533333 7.61733333,8.94933333 C7.87333333,8.69333333 8.00088889,8.37688889 8.00000461,8 C8.00000461,7.62222222 7.872,7.30533333 7.616,7.04933333 C7.36,6.79333333 7.04355556,6.66577778 6.66666667,6.66666205 C6.28888889,6.66666205 5.972,6.79466667 5.716,7.05066667 C5.46,7.30666667 5.33244444,7.62311111 5.33332872,8 C5.33332872,8.37777778 5.46133333,8.69466667 5.71733333,8.95066667 C5.97333333,9.20666667 6.28977778,9.33422222 6.66666667,9.33333795 Z" id="Shape" fill="#000000" fill-rule="nonzero"></path>
            </g>
        </g>
    </g>
</svg>

<?xml version="1.0" encoding="UTF-8"?>
<svg xmlns="http://www.w3.org/2000/svg" width="32" height="32" viewBox="0 0 32 32"><g fill="none" fill-rule="evenodd"><path d="M0 0h32v32H0z"/><path fill="currentColor" fill-rule="nonzero" d="M25.333 28c-.866 0-1.644-.25-2.333-.75a3.883 3.883 0 0 1-1.433-1.917h-6.9c-1.467 0-2.723-.522-3.767-1.566-1.044-1.045-1.567-2.3-1.567-3.767s.523-2.722 1.567-3.767c1.044-1.044 2.3-1.566 3.767-1.566h2.666c.734 0 1.362-.262 1.884-.784.523-.523.784-1.15.783-1.883 0-.733-.261-1.361-.784-1.884a2.563 2.563 0 0 0-1.883-.783h-6.9a4.122 4.122 0 0 1-1.45 1.918c-.679.5-1.45.75-2.316.749-1.111 0-2.056-.389-2.834-1.167C3.056 10.056 2.667 9.111 2.667 8c0-1.111.389-2.056 1.166-2.833C4.611 4.389 5.556 4 6.667 4c.866 0 1.639.25 2.317.75.678.501 1.16 1.14 1.448 1.917h6.901c1.467 0 2.723.522 3.767 1.566 1.044 1.045 1.567 2.3 1.567 3.767s-.523 2.722-1.567 3.767c-1.044 1.044-2.3 1.566-3.767 1.566h-2.666c-.734 0-1.362.262-1.884.784A2.563 2.563 0 0 0 12 20c0 .733.261 1.361.784 1.884.523.523 1.15.784 1.883.783h6.9a4.122 4.122 0 0 1 1.45-1.918c.679-.5 1.45-.75 2.316-.749 1.111 0 2.056.389 2.834 1.167.777.777 1.166 1.722 1.166 2.833 0 1.111-.389 2.056-1.166 2.833-.778.778-1.723 1.167-2.834 1.167ZM6.667 9.333c.377 0 .694-.128.95-.384S8.001 8.377 8 8c0-.378-.128-.695-.384-.95a1.285 1.285 0 0 0-.95-.383c-.377 0-.694.128-.95.384A1.285 1.285 0 0 0 5.333 8c0 .378.128.695.384.95.256.257.573.384.95.383Z"/></g></svg>
